svg/furkot/mapbox-maki/alcohol_shop.svg

<svg viewBox="0 0 512 512" xmlns="http://www.w3.org/2000/svg"><path d="m493.428 146.286h-146.284v125.805 2.195c.109 33.265 22.648 62.266 54.856 70.582v130.56h-18.286c-10.097 0-18.285 8.189-18.285 18.287s8.188 18.285 18.285 18.285h73.143c10.098 0 18.286-8.189 18.286-18.285 0-10.097-8.188-18.287-18.286-18.287h-18.285v-130.56c32.208-8.316 54.747-37.317 54.856-70.582 0 0 0 0 0-2.195zm-36.571 128c0 20.199-16.373 36.571-36.572 36.571s-36.571-16.372-36.571-36.571v-91.428h73.143zm-274.286-182.858v-18.285c10.098 0 18.287-8.188 18.287-18.286s-8.189-18.285-18.287-18.285v-18.287c0-10.096-8.188-18.285-18.285-18.285h-36.571c-10.098 0-18.287 8.189-18.287 18.285v18.287c-10.096 0-18.285 8.188-18.285 18.285 0 10.096 8.189 18.286 18.285 18.286v18.285c0 52.298-91.428 112.275-91.428 164.573v219.427c0 20.199 16.373 36.572 36.572 36.572h182.857c19.448-1.7 34.871-17.123 36.572-36.572v-219.427c0-49.373-91.43-115.2-91.43-164.573zm-36.571 347.429c-50.493 0-91.428-40.934-91.428-91.428 0-50.495 40.935-91.428 91.428-91.428s91.429 40.933 91.429 91.428c0 50.494-40.935 91.428-91.429 91.428z"/></svg>

<svg viewBox="0 0 512 512" xmlns="http://www.w3.org/2000/svg"><path d="M 493.428 146.286 L 347.144 146.286 L 347.144 272.091 L 347.144 272.091 C 347.144 272.091 347.144 272.091 347.144 274.286 C 347.253 307.551 369.792 336.552 402 344.868 L 402 475.428 L 383.714 475.428 C 373.617 475.428 365.429 483.617 365.429 493.715 C 365.429 503.813 373.617 512 383.714 512 L 456.857 512 C 466.955 512 475.143 503.811 475.143 493.715 C 475.143 483.618 466.955 475.428 456.857 475.428 L 438.572 475.428 L 438.572 344.868 C 470.78 336.552 493.319 307.551 493.428 274.286 C 493.428 274.286 493.428 274.286 493.428 272.091 L 493.428 272.091 L 493.428 146.286 Z M 456.857 274.286 C 456.857 294.485 440.484 310.857 420.285 310.857 C 400.086 310.857 383.714 294.485 383.714 274.286 L 383.714 182.858 L 456.857 182.858 L 456.857 274.286 Z M 182.571 91.428 L 182.571 73.143 C 192.669 73.143 200.858 64.955 200.858 54.857 C 200.858 44.759 192.669 36.572 182.571 36.572 L 182.571 18.285 C 182.571 8.189 174.383 0 164.286 0 L 127.715 0 C 117.617 0 109.428 8.189 109.428 18.285 L 109.428 36.572 C 99.332 36.572 91.143 44.76 91.143 54.857 C 91.143 64.953 99.332 73.143 109.428 73.143 L 109.428 91.428 C 109.428 143.726 18 203.703 18 256.001 L 18 475.428 C 18 495.627 34.373 512 54.572 512 L 237.429 512 C 256.877 510.3 272.3 494.877 274.001 475.428 L 274.001 256.001 C 274.001 206.628 182.571 140.801 182.571 91.428 Z M 146 438.857 C 95.507 438.857 54.572 397.923 54.572 347.429 C 54.572 296.934 95.507 256.001 146 256.001 C 196.493 256.001 237.429 296.934 237.429 347.429 C 237.429 397.923 196.494 438.857 146 438.857 Z"/></svg>
